img/icons/icon-filter-button.svg

<svg xmlns="http://www.w3.org/2000/svg" width="20" height="22" fill="none">
  <path fill="#ABABAB" d="M10 20C4.477 20 0 15.522 0 10v2c0 5.522 4.477 10 10 10 5.522 0 10-4.478 10-10v-2c0 5.522-4.478 10-10 10z" opacity=".3"/>
  <path fill="#fff" d="M10 20c5.5228 0 10-4.4772 10-10 0-5.52285-4.4772-10-10-10C4.47715 0 0 4.47715 0 10c0 5.5228 4.47715 10 10 10z"/>
  <path fill="#ABABAB" d="M10 12c1.1046 0 2-.8954 2-2 0-1.10457-.8954-2-2-2-1.10457 0-2 .89543-2 2 0 1.1046.89543 2 2 2z"/>
</svg>

<svg width="20" height="22" viewBox="0 0 20 22" fill="none" xmlns="http://www.w3.org/2000/svg">
<path opacity="0.3" d="M10 20C4.477 20 0 15.522 0 10V12C0 17.522 4.477 22 10 22C15.522 22 20 17.522 20 12V10C20 15.522 15.522 20 10 20Z" fill="#ABABAB"/>
<path d="M10 20C15.5228 20 20 15.5228 20 10C20 4.47715 15.5228 0 10 0C4.47715 0 0 4.47715 0 10C0 15.5228 4.47715 20 10 20Z" fill="white"/>
<path d="M10 12C11.1046 12 12 11.1046 12 10C12 8.89543 11.1046 8 10 8C8.89543 8 8 8.89543 8 10C8 11.1046 8.89543 12 10 12Z" fill="#ABABAB"/>
</svg>
